;fileName:C:\Users\ikastra\Desktop\first.zip
;machineType:default
;estimatedPrintTime:1802
;volume:0.856496
;resin:normal
;weight:0.942146
;price:0.0282644
;layerHeight:0.05
;resolutionX:1920
;resolutionY:1080
;machineX:50
;machineY:50
;machineZ:200
;projectType:Normal
;transitionLayerCount:0
;transitionLayerType:0
;normalExposureTime:6
;bottomLayExposureTime:50
;bottomLayerExposureTime:50
;normalDropSpeed:150
;normalLayerLiftHeight:5
;zSlowUpDistance:0
;normalLayerLiftSpeed:65
;bottomLayCount:8
;bottomLayerCount:8
;shrinkageX:100
;shrinkageY:100
;shrinkageZ:100
;mirror:0
;totalLayer:115
;bottomLayerLiftHeight:5
;bottomLayerLiftSpeed:65
;bottomLightOffTime:0
;lightOffTime:0
;bottomLayerDropSpeed:150
;edgeExposureMM:0
;edgeExposureTimeS:4
;bottomEdgeExposureMM:0
;bottomEdgeExposureTimeS:4
;START_GCODE_BEGIN
G21;
G90;
M106 S0;
G28 Z0;

;START_GCODE_END

;LAYER_START:0
;currPos:0.05
M6054 "1.png";show Image
G0 Z5.050000 F65.000000;
G0 Z0.050000 F150.000000;
G4 P0;
M106 S255.000000;light on
G4 P50000;
M106 S0; light off

;LAYER_END

;LAYER_START:1
;currPos:0.1
M6054 "2.png";show Image
G0 Z5.100000 F65.000000;
G0 Z0.100000 F150.000000;
G4 P0;
M106 S255.000000;light on
G4 P50000;
M106 S0; light off

;LAYER_END

;LAYER_START:2
;currPos:0.15
M6054 "3.png";show Image
G0 Z5.150000 F65.000000;
G0 Z0.150000 F150.000000;
G4 P0;
M106 S255.000000;light on
G4 P50000;
M106 S0; light off

;LAYER_END

;LAYER_START:3
;currPos:0.2
M6054 "4.png";show Image
G0 Z5.200000 F65.000000;
G0 Z0.200000 F150.000000;
G4 P0;
M106 S255.000000;light on
G4 P50000;
M106 S0; light off

;LAYER_END

;LAYER_START:4
;currPos:0.25
M6054 "5.png";show Image
G0 Z5.250000 F65.000000;
G0 Z0.250000 F150.000000;
G4 P0;
M106 S255.000000;light on
G4 P50000;
M106 S0; light off

;LAYER_END

;LAYER_START:5
;currPos:0.3
M6054 "6.png";show Image
G0 Z5.300000 F65.000000;
G0 Z0.300000 F150.000000;
G4 P0;
M106 S255.000000;light on
G4 P50000;
M106 S0; light off

;LAYER_END

;LAYER_START:6
;currPos:0.35
M6054 "7.png";show Image
G0 Z5.350000 F65.000000;
G0 Z0.350000 F150.000000;
G4 P0;
M106 S255.000000;light on
G4 P50000;
M106 S0; light off

;LAYER_END

;LAYER_START:7
;currPos:0.4
M6054 "8.png";show Image
G0 Z5.400000 F65.000000;
G0 Z0.400000 F150.000000;
G4 P0;
M106 S255.000000;light on
G4 P50000;
M106 S0; light off

;LAYER_END

;LAYER_START:8
;currPos:0.45
M6054 "9.png";show Image
G0 Z5.450000 F65.000000;
G0 Z0.450000 F150.000000;
G4 P0;
M106 S255.000000;light on
G4 P6000;
M106 S0; light off

;LAYER_END

;LAYER_START:9
;currPos:0.5
M6054 "10.png";show Image
G0 Z5.500000 F65.000000;
G0 Z0.500000 F150.000000;
G4 P0;
M106 S255.000000;light on
G4 P6000;
M106 S0; light off

;LAYER_END

;LAYER_START:10
;currPos:0.55
M6054 "11.png";show Image
G0 Z5.550000 F65.000000;
G0 Z0.550000 F150.000000;
G4 P0;
M106 S255.000000;light on
G4 P6000;
M106 S0; light off

;LAYER_END

;LAYER_START:11
;currPos:0.6
M6054 "12.png";show Image
G0 Z5.600000 F65.000000;
G0 Z0.600000 F150.000000;
G4 P0;
M106 S255.000000;light on
G4 P6000;
M106 S0; light off

;LAYER_END

;LAYER_START:12
;currPos:0.65
M6054 "13.png";show Image
G0 Z5.650000 F65.000000;
G0 Z0.650000 F150.000000;
G4 P0;
M106 S255.000000;light on
G4 P6000;
M106 S0; light off

;LAYER_END

;LAYER_START:13
;currPos:0.7
M6054 "14.png";show Image
G0 Z5.700000 F65.000000;
G0 Z0.700000 F150.000000;
G4 P0;
M106 S255.000000;light on
G4 P6000;
M106 S0; light off

;LAYER_END

;LAYER_START:14
;currPos:0.75
M6054 "15.png";show Image
G0 Z5.750000 F65.000000;
G0 Z0.750000 F150.000000;
G4 P0;
M106 S255.000000;light on
G4 P6000;
M106 S0; light off

;LAYER_END

;LAYER_START:15
;currPos:0.8
M6054 "16.png";show Image
G0 Z5.800000 F65.000000;
G0 Z0.800000 F150.000000;
G4 P0;
M106 S255.000000;light on
G4 P6000;
M106 S0; light off

;LAYER_END

;LAYER_START:16
;currPos:0.85
M6054 "17.png";show Image
G0 Z5.850000 F65.000000;
G0 Z0.850000 F150.000000;
G4 P0;
M106 S255.000000;light on
G4 P6000;
M106 S0; light off

;LAYER_END

;LAYER_START:17
;currPos:0.9
M6054 "18.png";show Image
G0 Z5.900000 F65.000000;
G0 Z0.900000 F150.000000;
G4 P0;
M106 S255.000000;light on
G4 P6000;
M106 S0; light off

;LAYER_END

;LAYER_START:18
;currPos:0.95
M6054 "19.png";show Image
G0 Z5.950000 F65.000000;
G0 Z0.950000 F150.000000;
G4 P0;
M106 S255.000000;light on
G4 P6000;
M106 S0; light off

;LAYER_END

;LAYER_START:19
;currPos:1
M6054 "20.png";show Image
G0 Z6.000000 F65.000000;
G0 Z1.000000 F150.000000;
G4 P0;
M106 S255.000000;light on
G4 P6000;
M106 S0; light off

;LAYER_END

;LAYER_START:20
;currPos:1.05
M6054 "21.png";show Image
G0 Z6.050000 F65.000000;
G0 Z1.050000 F150.000000;
G4 P0;
M106 S255.000000;light on
G4 P6000;
M106 S0; light off

;LAYER_END

;LAYER_START:21
;currPos:1.1
M6054 "22.png";show Image
G0 Z6.100000 F65.000000;
G0 Z1.100000 F150.000000;
G4 P0;
M106 S255.000000;light on
G4 P6000;
M106 S0; light off

;LAYER_END

;LAYER_START:22
;currPos:1.15
M6054 "23.png";show Image
G0 Z6.150000 F65.000000;
G0 Z1.150000 F150.000000;
G4 P0;
M106 S255.000000;light on
G4 P6000;
M106 S0; light off

;LAYER_END

;LAYER_START:23
;currPos:1.2
M6054 "24.png";show Image
G0 Z6.200000 F65.000000;
G0 Z1.200000 F150.000000;
G4 P0;
M106 S255.000000;light on
G4 P6000;
M106 S0; light off

;LAYER_END

;LAYER_START:24
;currPos:1.25
M6054 "25.png";show Image
G0 Z6.250000 F65.000000;
G0 Z1.250000 F150.000000;
G4 P0;
M106 S255.000000;light on
G4 P6000;
M106 S0; light off

;LAYER_END

;LAYER_START:25
;currPos:1.3
M6054 "26.png";show Image
G0 Z6.300000 F65.000000;
G0 Z1.300000 F150.000000;
G4 P0;
M106 S255.000000;light on
G4 P6000;
M106 S0; light off

;LAYER_END

;LAYER_START:26
;currPos:1.35
M6054 "27.png";show Image
G0 Z6.350000 F65.000000;
G0 Z1.350000 F150.000000;
G4 P0;
M106 S255.000000;light on
G4 P6000;
M106 S0; light off

;LAYER_END

;LAYER_START:27
;currPos:1.4
M6054 "28.png";show Image
G0 Z6.400000 F65.000000;
G0 Z1.400000 F150.000000;
G4 P0;
M106 S255.000000;light on
G4 P6000;
M106 S0; light off

;LAYER_END

;LAYER_START:28
;currPos:1.45
M6054 "29.png";show Image
G0 Z6.450000 F65.000000;
G0 Z1.450000 F150.000000;
G4 P0;
M106 S255.000000;light on
G4 P6000;
M106 S0; light off

;LAYER_END

;LAYER_START:29
;currPos:1.5
M6054 "30.png";show Image
G0 Z6.500000 F65.000000;
G0 Z1.500000 F150.000000;
G4 P0;
M106 S255.000000;light on
G4 P6000;
M106 S0; light off

;LAYER_END

;LAYER_START:30
;currPos:1.55
M6054 "31.png";show Image
G0 Z6.550000 F65.000000;
G0 Z1.550000 F150.000000;
G4 P0;
M106 S255.000000;light on
G4 P6000;
M106 S0; light off

;LAYER_END

;LAYER_START:31
;currPos:1.6
M6054 "32.png";show Image
G0 Z6.600000 F65.000000;
G0 Z1.600000 F150.000000;
G4 P0;
M106 S255.000000;light on
G4 P6000;
M106 S0; light off

;LAYER_END

;LAYER_START:32
;currPos:1.65
M6054 "33.png";show Image
G0 Z6.650000 F65.000000;
G0 Z1.650000 F150.000000;
G4 P0;
M106 S255.000000;light on
G4 P6000;
M106 S0; light off

;LAYER_END

;LAYER_START:33
;currPos:1.7
M6054 "34.png";show Image
G0 Z6.700000 F65.000000;
G0 Z1.700000 F150.000000;
G4 P0;
M106 S255.000000;light on
G4 P6000;
M106 S0; light off

;LAYER_END

;LAYER_START:34
;currPos:1.75
M6054 "35.png";show Image
G0 Z6.750000 F65.000000;
G0 Z1.750000 F150.000000;
G4 P0;
M106 S255.000000;light on
G4 P6000;
M106 S0; light off

;LAYER_END

;LAYER_START:35
;currPos:1.8
M6054 "36.png";show Image
G0 Z6.800000 F65.000000;
G0 Z1.800000 F150.000000;
G4 P0;
M106 S255.000000;light on
G4 P6000;
M106 S0; light off

;LAYER_END

;LAYER_START:36
;currPos:1.85
M6054 "37.png";show Image
G0 Z6.850000 F65.000000;
G0 Z1.850000 F150.000000;
G4 P0;
M106 S255.000000;light on
G4 P6000;
M106 S0; light off

;LAYER_END

;LAYER_START:37
;currPos:1.9
M6054 "38.png";show Image
G0 Z6.900000 F65.000000;
G0 Z1.900000 F150.000000;
G4 P0;
M106 S255.000000;light on
G4 P6000;
M106 S0; light off

;LAYER_END

;LAYER_START:38
;currPos:1.95
M6054 "39.png";show Image
G0 Z6.950000 F65.000000;
G0 Z1.950000 F150.000000;
G4 P0;
M106 S255.000000;light on
G4 P6000;
M106 S0; light off

;LAYER_END

;LAYER_START:39
;currPos:2
M6054 "40.png";show Image
G0 Z7.000000 F65.000000;
G0 Z2.000000 F150.000000;
G4 P0;
M106 S255.000000;light on
G4 P6000;
M106 S0; light off

;LAYER_END

;LAYER_START:40
;currPos:2.05
M6054 "41.png";show Image
G0 Z7.050000 F65.000000;
G0 Z2.050000 F150.000000;
G4 P0;
M106 S255.000000;light on
G4 P6000;
M106 S0; light off

;LAYER_END

;LAYER_START:41
;currPos:2.1
M6054 "42.png";show Image
G0 Z7.100000 F65.000000;
G0 Z2.100000 F150.000000;
G4 P0;
M106 S255.000000;light on
G4 P6000;
M106 S0; light off

;LAYER_END

;LAYER_START:42
;currPos:2.15
M6054 "43.png";show Image
G0 Z7.150000 F65.000000;
G0 Z2.150000 F150.000000;
G4 P0;
M106 S255.000000;light on
G4 P6000;
M106 S0; light off

;LAYER_END

;LAYER_START:43
;currPos:2.2
M6054 "44.png";show Image
G0 Z7.200000 F65.000000;
G0 Z2.200000 F150.000000;
G4 P0;
M106 S255.000000;light on
G4 P6000;
M106 S0; light off

;LAYER_END

;LAYER_START:44
;currPos:2.25
M6054 "45.png";show Image
G0 Z7.250000 F65.000000;
G0 Z2.250000 F150.000000;
G4 P0;
M106 S255.000000;light on
G4 P6000;
M106 S0; light off

;LAYER_END

;LAYER_START:45
;currPos:2.3
M6054 "46.png";show Image
G0 Z7.300000 F65.000000;
G0 Z2.300000 F150.000000;
G4 P0;
M106 S255.000000;light on
G4 P6000;
M106 S0; light off

;LAYER_END

;LAYER_START:46
;currPos:2.35
M6054 "47.png";show Image
G0 Z7.350000 F65.000000;
G0 Z2.350000 F150.000000;
G4 P0;
M106 S255.000000;light on
G4 P6000;
M106 S0; light off

;LAYER_END

;LAYER_START:47
;currPos:2.4
M6054 "48.png";show Image
G0 Z7.400000 F65.000000;
G0 Z2.400000 F150.000000;
G4 P0;
M106 S255.000000;light on
G4 P6000;
M106 S0; light off

;LAYER_END

;LAYER_START:48
;currPos:2.45
M6054 "49.png";show Image
G0 Z7.450000 F65.000000;
G0 Z2.450000 F150.000000;
G4 P0;
M106 S255.000000;light on
G4 P6000;
M106 S0; light off

;LAYER_END

;LAYER_START:49
;currPos:2.5
M6054 "50.png";show Image
G0 Z7.500000 F65.000000;
G0 Z2.500000 F150.000000;
G4 P0;
M106 S255.000000;light on
G4 P6000;
M106 S0; light off

;LAYER_END

;LAYER_START:50
;currPos:2.55
M6054 "51.png";show Image
G0 Z7.550000 F65.000000;
G0 Z2.550000 F150.000000;
G4 P0;
M106 S255.000000;light on
G4 P6000;
M106 S0; light off

;LAYER_END

;LAYER_START:51
;currPos:2.6
M6054 "52.png";show Image
G0 Z7.600000 F65.000000;
G0 Z2.600000 F150.000000;
G4 P0;
M106 S255.000000;light on
G4 P6000;
M106 S0; light off

;LAYER_END

;LAYER_START:52
;currPos:2.65
M6054 "53.png";show Image
G0 Z7.650000 F65.000000;
G0 Z2.650000 F150.000000;
G4 P0;
M106 S255.000000;light on
G4 P6000;
M106 S0; light off

;LAYER_END

;LAYER_START:53
;currPos:2.7
M6054 "54.png";show Image
G0 Z7.700000 F65.000000;
G0 Z2.700000 F150.000000;
G4 P0;
M106 S255.000000;light on
G4 P6000;
M106 S0; light off

;LAYER_END

;LAYER_START:54
;currPos:2.75
M6054 "55.png";show Image
G0 Z7.750000 F65.000000;
G0 Z2.750000 F150.000000;
G4 P0;
M106 S255.000000;light on
G4 P6000;
M106 S0; light off

;LAYER_END

;LAYER_START:55
;currPos:2.8
M6054 "56.png";show Image
G0 Z7.800000 F65.000000;
G0 Z2.800000 F150.000000;
G4 P0;
M106 S255.000000;light on
G4 P6000;
M106 S0; light off

;LAYER_END

;LAYER_START:56
;currPos:2.85
M6054 "57.png";show Image
G0 Z7.850000 F65.000000;
G0 Z2.850000 F150.000000;
G4 P0;
M106 S255.000000;light on
G4 P6000;
M106 S0; light off

;LAYER_END

;LAYER_START:57
;currPos:2.9
M6054 "58.png";show Image
G0 Z7.900000 F65.000000;
G0 Z2.900000 F150.000000;
G4 P0;
M106 S255.000000;light on
G4 P6000;
M106 S0; light off

;LAYER_END

;LAYER_START:58
;currPos:2.95
M6054 "59.png";show Image
G0 Z7.950000 F65.000000;
G0 Z2.950000 F150.000000;
G4 P0;
M106 S255.000000;light on
G4 P6000;
M106 S0; light off

;LAYER_END

;LAYER_START:59
;currPos:3
M6054 "60.png";show Image
G0 Z8.000000 F65.000000;
G0 Z3.000000 F150.000000;
G4 P0;
M106 S255.000000;light on
G4 P6000;
M106 S0; light off

;LAYER_END

;LAYER_START:60
;currPos:3.05
M6054 "61.png";show Image
G0 Z8.050000 F65.000000;
G0 Z3.050000 F150.000000;
G4 P0;
M106 S255.000000;light on
G4 P6000;
M106 S0; light off

;LAYER_END

;LAYER_START:61
;currPos:3.1
M6054 "62.png";show Image
G0 Z8.100000 F65.000000;
G0 Z3.100000 F150.000000;
G4 P0;
M106 S255.000000;light on
G4 P6000;
M106 S0; light off

;LAYER_END

;LAYER_START:62
;currPos:3.15
M6054 "63.png";show Image
G0 Z8.150000 F65.000000;
G0 Z3.150000 F150.000000;
G4 P0;
M106 S255.000000;light on
G4 P6000;
M106 S0; light off

;LAYER_END

;LAYER_START:63
;currPos:3.2
M6054 "64.png";show Image
G0 Z8.200000 F65.000000;
G0 Z3.200000 F150.000000;
G4 P0;
M106 S255.000000;light on
G4 P6000;
M106 S0; light off

;LAYER_END

;LAYER_START:64
;currPos:3.25
M6054 "65.png";show Image
G0 Z8.250000 F65.000000;
G0 Z3.250000 F150.000000;
G4 P0;
M106 S255.000000;light on
G4 P6000;
M106 S0; light off

;LAYER_END

;LAYER_START:65
;currPos:3.3
M6054 "66.png";show Image
G0 Z8.300000 F65.000000;
G0 Z3.300000 F150.000000;
G4 P0;
M106 S255.000000;light on
G4 P6000;
M106 S0; light off

;LAYER_END

;LAYER_START:66
;currPos:3.35
M6054 "67.png";show Image
G0 Z8.350000 F65.000000;
G0 Z3.350000 F150.000000;
G4 P0;
M106 S255.000000;light on
G4 P6000;
M106 S0; light off

;LAYER_END

;LAYER_START:67
;currPos:3.4
M6054 "68.png";show Image
G0 Z8.400000 F65.000000;
G0 Z3.400000 F150.000000;
G4 P0;
M106 S255.000000;light on
G4 P6000;
M106 S0; light off

;LAYER_END

;LAYER_START:68
;currPos:3.45
M6054 "69.png";show Image
G0 Z8.450000 F65.000000;
G0 Z3.450000 F150.000000;
G4 P0;
M106 S255.000000;light on
G4 P6000;
M106 S0; light off

;LAYER_END

;LAYER_START:69
;currPos:3.5
M6054 "70.png";show Image
G0 Z8.500000 F65.000000;
G0 Z3.500000 F150.000000;
G4 P0;
M106 S255.000000;light on
G4 P6000;
M106 S0; light off

;LAYER_END

;LAYER_START:70
;currPos:3.55
M6054 "71.png";show Image
G0 Z8.550000 F65.000000;
G0 Z3.550000 F150.000000;
G4 P0;
M106 S255.000000;light on
G4 P6000;
M106 S0; light off

;LAYER_END

;LAYER_START:71
;currPos:3.6
M6054 "72.png";show Image
G0 Z8.600000 F65.000000;
G0 Z3.600000 F150.000000;
G4 P0;
M106 S255.000000;light on
G4 P6000;
M106 S0; light off

;LAYER_END

;LAYER_START:72
;currPos:3.65
M6054 "73.png";show Image
G0 Z8.650000 F65.000000;
G0 Z3.650000 F150.000000;
G4 P0;
M106 S255.000000;light on
G4 P6000;
M106 S0; light off

;LAYER_END

;LAYER_START:73
;currPos:3.7
M6054 "74.png";show Image
G0 Z8.700000 F65.000000;
G0 Z3.700000 F150.000000;
G4 P0;
M106 S255.000000;light on
G4 P6000;
M106 S0; light off

;LAYER_END

;LAYER_START:74
;currPos:3.75
M6054 "75.png";show Image
G0 Z8.750000 F65.000000;
G0 Z3.750000 F150.000000;
G4 P0;
M106 S255.000000;light on
G4 P6000;
M106 S0; light off

;LAYER_END

;LAYER_START:75
;currPos:3.8
M6054 "76.png";show Image
G0 Z8.800000 F65.000000;
G0 Z3.800000 F150.000000;
G4 P0;
M106 S255.000000;light on
G4 P6000;
M106 S0; light off

;LAYER_END

;LAYER_START:76
;currPos:3.85
M6054 "77.png";show Image
G0 Z8.850000 F65.000000;
G0 Z3.850000 F150.000000;
G4 P0;
M106 S255.000000;light on
G4 P6000;
M106 S0; light off

;LAYER_END

;LAYER_START:77
;currPos:3.9
M6054 "78.png";show Image
G0 Z8.900000 F65.000000;
G0 Z3.900000 F150.000000;
G4 P0;
M106 S255.000000;light on
G4 P6000;
M106 S0; light off

;LAYER_END

;LAYER_START:78
;currPos:3.95
M6054 "79.png";show Image
G0 Z8.950000 F65.000000;
G0 Z3.950000 F150.000000;
G4 P0;
M106 S255.000000;light on
G4 P6000;
M106 S0; light off

;LAYER_END

;LAYER_START:79
;currPos:4
M6054 "80.png";show Image
G0 Z9.000000 F65.000000;
G0 Z4.000000 F150.000000;
G4 P0;
M106 S255.000000;light on
G4 P6000;
M106 S0; light off

;LAYER_END

;LAYER_START:80
;currPos:4.05
M6054 "81.png";show Image
G0 Z9.050000 F65.000000;
G0 Z4.050000 F150.000000;
G4 P0;
M106 S255.000000;light on
G4 P6000;
M106 S0; light off

;LAYER_END

;LAYER_START:81
;currPos:4.1
M6054 "82.png";show Image
G0 Z9.100000 F65.000000;
G0 Z4.100000 F150.000000;
G4 P0;
M106 S255.000000;light on
G4 P6000;
M106 S0; light off

;LAYER_END

;LAYER_START:82
;currPos:4.15
M6054 "83.png";show Image
G0 Z9.150000 F65.000000;
G0 Z4.150000 F150.000000;
G4 P0;
M106 S255.000000;light on
G4 P6000;
M106 S0; light off

;LAYER_END

;LAYER_START:83
;currPos:4.2
M6054 "84.png";show Image
G0 Z9.200001 F65.000000;
G0 Z4.200000 F150.000000;
G4 P0;
M106 S255.000000;light on
G4 P6000;
M106 S0; light off

;LAYER_END

;LAYER_START:84
;currPos:4.25
M6054 "85.png";show Image
G0 Z9.250000 F65.000000;
G0 Z4.250000 F150.000000;
G4 P0;
M106 S255.000000;light on
G4 P6000;
M106 S0; light off

;LAYER_END

;LAYER_START:85
;currPos:4.3
M6054 "86.png";show Image
G0 Z9.300000 F65.000000;
G0 Z4.300000 F150.000000;
G4 P0;
M106 S255.000000;light on
G4 P6000;
M106 S0; light off

;LAYER_END

;LAYER_START:86
;currPos:4.35
M6054 "87.png";show Image
G0 Z9.350000 F65.000000;
G0 Z4.350000 F150.000000;
G4 P0;
M106 S255.000000;light on
G4 P6000;
M106 S0; light off

;LAYER_END

;LAYER_START:87
;currPos:4.4
M6054 "88.png";show Image
G0 Z9.400000 F65.000000;
G0 Z4.400000 F150.000000;
G4 P0;
M106 S255.000000;light on
G4 P6000;
M106 S0; light off

;LAYER_END

;LAYER_START:88
;currPos:4.45
M6054 "89.png";show Image
G0 Z9.450001 F65.000000;
G0 Z4.450000 F150.000000;
G4 P0;
M106 S255.000000;light on
G4 P6000;
M106 S0; light off

;LAYER_END

;LAYER_START:89
;currPos:4.5
M6054 "90.png";show Image
G0 Z9.500000 F65.000000;
G0 Z4.500000 F150.000000;
G4 P0;
M106 S255.000000;light on
G4 P6000;
M106 S0; light off

;LAYER_END

;LAYER_START:90
;currPos:4.55
M6054 "91.png";show Image
G0 Z9.550000 F65.000000;
G0 Z4.550000 F150.000000;
G4 P0;
M106 S255.000000;light on
G4 P6000;
M106 S0; light off

;LAYER_END

;LAYER_START:91
;currPos:4.6
M6054 "92.png";show Image
G0 Z9.600000 F65.000000;
G0 Z4.600000 F150.000000;
G4 P0;
M106 S255.000000;light on
G4 P6000;
M106 S0; light off

;LAYER_END

;LAYER_START:92
;currPos:4.65
M6054 "93.png";show Image
G0 Z9.650000 F65.000000;
G0 Z4.650000 F150.000000;
G4 P0;
M106 S255.000000;light on
G4 P6000;
M106 S0; light off

;LAYER_END

;LAYER_START:93
;currPos:4.7
M6054 "94.png";show Image
G0 Z9.700001 F65.000000;
G0 Z4.700000 F150.000000;
G4 P0;
M106 S255.000000;light on
G4 P6000;
M106 S0; light off

;LAYER_END

;LAYER_START:94
;currPos:4.75
M6054 "95.png";show Image
G0 Z9.750000 F65.000000;
G0 Z4.750000 F150.000000;
G4 P0;
M106 S255.000000;light on
G4 P6000;
M106 S0; light off

;LAYER_END

;LAYER_START:95
;currPos:4.8
M6054 "96.png";show Image
G0 Z9.800000 F65.000000;
G0 Z4.800000 F150.000000;
G4 P0;
M106 S255.000000;light on
G4 P6000;
M106 S0; light off

;LAYER_END

;LAYER_START:96
;currPos:4.85
M6054 "97.png";show Image
G0 Z9.850000 F65.000000;
G0 Z4.850000 F150.000000;
G4 P0;
M106 S255.000000;light on
G4 P6000;
M106 S0; light off

;LAYER_END

;LAYER_START:97
;currPos:4.9
M6054 "98.png";show Image
G0 Z9.900000 F65.000000;
G0 Z4.900000 F150.000000;
G4 P0;
M106 S255.000000;light on
G4 P6000;
M106 S0; light off

;LAYER_END

;LAYER_START:98
;currPos:4.95
M6054 "99.png";show Image
G0 Z9.950001 F65.000000;
G0 Z4.950000 F150.000000;
G4 P0;
M106 S255.000000;light on
G4 P6000;
M106 S0; light off

;LAYER_END

;LAYER_START:99
;currPos:5
M6054 "100.png";show Image
G0 Z10.000000 F65.000000;
G0 Z5.000000 F150.000000;
G4 P0;
M106 S255.000000;light on
G4 P6000;
M106 S0; light off

;LAYER_END

;LAYER_START:100
;currPos:5.05
M6054 "101.png";show Image
G0 Z10.050000 F65.000000;
G0 Z5.050000 F150.000000;
G4 P0;
M106 S255.000000;light on
G4 P6000;
M106 S0; light off

;LAYER_END

;LAYER_START:101
;currPos:5.1
M6054 "102.png";show Image
G0 Z10.100000 F65.000000;
G0 Z5.100000 F150.000000;
G4 P0;
M106 S255.000000;light on
G4 P6000;
M106 S0; light off

;LAYER_END

;LAYER_START:102
;currPos:5.15
M6054 "103.png";show Image
G0 Z10.150000 F65.000000;
G0 Z5.150000 F150.000000;
G4 P0;
M106 S255.000000;light on
G4 P6000;
M106 S0; light off

;LAYER_END

;LAYER_START:103
;currPos:5.2
M6054 "104.png";show Image
G0 Z10.200001 F65.000000;
G0 Z5.200000 F150.000000;
G4 P0;
M106 S255.000000;light on
G4 P6000;
M106 S0; light off

;LAYER_END

;LAYER_START:104
;currPos:5.25
M6054 "105.png";show Image
G0 Z10.250000 F65.000000;
G0 Z5.250000 F150.000000;
G4 P0;
M106 S255.000000;light on
G4 P6000;
M106 S0; light off

;LAYER_END

;LAYER_START:105
;currPos:5.3
M6054 "106.png";show Image
G0 Z10.300000 F65.000000;
G0 Z5.300000 F150.000000;
G4 P0;
M106 S255.000000;light on
G4 P6000;
M106 S0; light off

;LAYER_END

;LAYER_START:106
;currPos:5.35
M6054 "107.png";show Image
G0 Z10.350000 F65.000000;
G0 Z5.350000 F150.000000;
G4 P0;
M106 S255.000000;light on
G4 P6000;
M106 S0; light off

;LAYER_END

;LAYER_START:107
;currPos:5.4
M6054 "108.png";show Image
G0 Z10.400000 F65.000000;
G0 Z5.400000 F150.000000;
G4 P0;
M106 S255.000000;light on
G4 P6000;
M106 S0; light off

;LAYER_END

;LAYER_START:108
;currPos:5.45
M6054 "109.png";show Image
G0 Z10.450001 F65.000000;
G0 Z5.450000 F150.000000;
G4 P0;
M106 S255.000000;light on
G4 P6000;
M106 S0; light off

;LAYER_END

;LAYER_START:109
;currPos:5.5
M6054 "110.png";show Image
G0 Z10.500000 F65.000000;
G0 Z5.500000 F150.000000;
G4 P0;
M106 S255.000000;light on
G4 P6000;
M106 S0; light off

;LAYER_END

;LAYER_START:110
;currPos:5.55
M6054 "111.png";show Image
G0 Z10.550000 F65.000000;
G0 Z5.550000 F150.000000;
G4 P0;
M106 S255.000000;light on
G4 P6000;
M106 S0; light off

;LAYER_END

;LAYER_START:111
;currPos:5.6
M6054 "112.png";show Image
G0 Z10.600000 F65.000000;
G0 Z5.600000 F150.000000;
G4 P0;
M106 S255.000000;light on
G4 P6000;
M106 S0; light off

;LAYER_END

;LAYER_START:112
;currPos:5.65
M6054 "113.png";show Image
G0 Z10.650000 F65.000000;
G0 Z5.650000 F150.000000;
G4 P0;
M106 S255.000000;light on
G4 P6000;
M106 S0; light off

;LAYER_END

;LAYER_START:113
;currPos:5.7
M6054 "114.png";show Image
G0 Z10.700001 F65.000000;
G0 Z5.700000 F150.000000;
G4 P0;
M106 S255.000000;light on
G4 P6000;
M106 S0; light off

;LAYER_END

;LAYER_START:114
;currPos:5.75
M6054 "115.png";show Image
G0 Z10.750000 F65.000000;
G0 Z5.750000 F150.000000;
G4 P0;
M106 S255.000000;light on
G4 P6000;
M106 S0; light off

;LAYER_END
;END_GCODE_BEGIN
M106 S0;
G1 Z200.000000 F25;
M18;

;END_GCODE_END
